X: 1766
T: O'Neill's Hornpipe   #2
R: hornpipe
%S: s:2 b:13(6.5+6.5)
B: O'Neill's 1850 #1766
Z: "Transcribed by Bob Safranek, rjs@gsp.org"
M: C|
L: 1/8
K: A
e>d | c>eA>c E>AC>E | ((3A,CE) ((3Ace) \
[1,3 a2b>a | g>be>g B>eG>B | ((3EGB) ((3egb) e'2 :|\
[2,4 a>c'b>a | g>be>g f>a^d>f | e>Bg>B e2 :|
|: d>e | f>A,D>F A>df>a | e>A,C>E \
[1,3 A>df>a | g>B,E>G B>dg>a | b>ag>f e>c :|\
[2,4 A>ce>a | g>eb>g e>dB>e | A2[a2c] [a2c] :|
